X: 1712
T: NELSON'S VICTORY
M:C|
L:1/8
B:O'NEILL'S 1712
Z:Transcribed by A. LEE WORMAN
K:G
D2(GF) GABc|d2(fd) gdBG|E2(cB) AGFA|GFGE DCB,A,|
G,2 (GF) GABc|dgfa gdBG|Ecec BAGF|G2G2G2z2:|
|:Bdgd cBcd|ecBc A^GAB|cfaf dcBc|dFGE DCB,A,|
Bdgd cBcd|egfa gdBG|Ecec BAGF|G2G2G2z2:|
%  ABC2Win Version 2.1 2/7/98


